X:6
T:The Castle
T:Sean Ryan's Jig
R:jig
C:Sean Ryan
O:20th century Ireland
D:An Historic Recording of Irish Music
B:The Hidden Ireland, Sean Ryan
Z:Paul Stewart Cranford (P.S.C.), <http://www.cranfordpub.com>
H:                              copyrights Brian Ryan
L:1/8
Q:333
M:6/8
K:Ador
c2 A BAG|AGE DB,G,|~A,3 EDB,|DEG AGE|
c2 A BdB|AGE DB,G,|~A,3 EGE|DB,G, A,2 B:|
|:cBA aga|bag edB|GBd gfg|GBd cBA|
cBc dcd|ede gab|age dBG|EFG A2 B:|
